X: 4
T: The Glen Cottage
R: polka
M: 2/4
L: 1/8
K: Ador
|: B/d/ |eA AB/d/ | ed Bd | eA AB/A/ | G>A Bd |
eA AB/d/ | ed Bd | e/f/g/e/ dB | BA A :|
|: B/d/ |e2 ef/g/ | ae fe | d2 de/f/ | ge fd |
e2 ef/g/ | ae fd | ea e/f/e/d/ | BA A :|


Tune 5278	Setting 22744

